files/resources/svgs/general/o-building-office.svg

<svg xmlns="http://www.w3.org/2000/svg" fill="none" viewBox="0 0 24 24" stroke-width="1.5" stroke="currentColor" aria-hidden="true">
  <path stroke-linecap="round" stroke-linejoin="round" d="M3.75 21h16.5M4.5 3h15M5.25 3v18m13.5-18v18M9 6.75h1.5m-1.5 3h1.5m-1.5 3h1.5m3-6H15m-1.5 3H15m-1.5 3H15M9 21v-3.375c0-.621.504-1.125 1.125-1.125h3.75c.621 0 1.125.504 1.125 1.125V21"/>
</svg>

<svg width="24" height="24" viewBox="0 0 24 24" fill="none" xmlns="http://www.w3.org/2000/svg">
<path d="M3.75 21H20.25M4.5 3H19.5M5.25 3V21M18.75 3V21M9 6.75H10.5M9 9.75H10.5M9 12.75H10.5M13.5 6.75H15M13.5 9.75H15M13.5 12.75H15M9 21V17.625C9 17.0037 9.50368 16.5 10.125 16.5H13.875C14.4963 16.5 15 17.0037 15 17.625V21" stroke="#0F172A" stroke-width="1.5" stroke-linecap="round" stroke-linejoin="round"/>
</svg>
